X:1
T:Castle Kelly
R:reel
D:Oisin: Over the Moor to Maggie
Z:id:hn-reel-118
M:4/4
L:1/8
K:Am
A2cA ~A2cA|G2EG ~G2EG|A2cA GAcd|ecdB cAAG|
A2cA ~A2cA|G2EG ~G2EG|A2cA GAcd|ecdB cA~A2:|
agec d2ed|cAGE ~G3a|agec d2cd|eaag ~a2 ba|
gedc dfed|cAGE G2EG|A2cA GAcd|1 ecdB cA~A2:|2 ecdB cAAG|]
